public/images/poses-sm/Crow.svg

<svg width="800" height="900" fill="none" xmlns="http://www.w3.org/2000/svg"><path d="M528.058 385.828s39.856-.28 46.387 20.146l14.975-60.654c-31.348 9.297-45.066-18.996-45.066-18.996-6.16-8.645-24.376-35.65-41.529-51.895-37.445-35.46-76.481-58.069-132.56-71.46-8.79-2.088-46.554-6.511-61.526-6.597-2.322-.007-5.58-.131-9.096-.329-1.009-.075-4.48 4.032-5.521 3.957-14.041 35.715-24.058 67.66-35.181 104.398 1.05-.446 2.099-.893 3.149-1.304 3.111-1.3 6.113-2.412 8.998-3.302 2.021-.634 5.359-1.633 7.421-1.739 19.992-1.283 41.176 1.105 59.351 7.939 18.135 6.831 35.779 15.765 49.223 27.377 12.362 10.709 14.669 26.069 24.931 36.172 8.478 8.379 18.837 11.22 28.754 12.11 20.472 1.826 38.383-.787 58.031 1.193 13.535 1.364 29.259 2.984 29.259 2.984Z" fill="#fff" stroke="#000" stroke-width="5" stroke-miterlimit="10"/><path d="M528.058 385.828s39.856-.28 46.387 20.146l14.975-60.654c-31.348 9.297-45.066-18.996-45.066-18.996-6.16-8.645-24.376-35.65-41.529-51.895-37.445-35.46-76.481-58.069-132.56-71.46-8.79-2.088-46.554-6.511-61.526-6.597-2.322-.007-5.58-.131-9.096-.329-1.009-.075-4.48 4.032-5.521 3.957-14.041 35.715-24.058 67.66-35.181 104.398 1.05-.446 2.099-.893 3.149-1.304 3.111-1.3 6.113-2.412 8.998-3.302 2.021-.634 5.359-1.633 7.421-1.739 19.992-1.283 41.176 1.105 59.351 7.939 18.135 6.831 35.779 15.765 49.223 27.377 12.362 10.709 14.669 26.069 24.931 36.172 8.478 8.379 18.837 11.22 28.754 12.11 20.472 1.826 38.383-.787 58.031 1.193 13.535 1.364 29.259 2.984 29.259 2.984Z" stroke="#000" stroke-width="5" stroke-miterlimit="10"/><path d="M477.859 363.067c-1.276 4.644-1.905 7.659-2.808 10.778-5.799 19.993-28.355 112.765-47.22 151.556-40.345 82.923-59.404 145.26-66.191 173.929-1.915 8.104 4.731 17.502 13.057 17.502l95.919 1.316c2.883 0 4.329-3.609 2.149-5.503-14.362-12.508-59.021-16.738-72.346-17.428-3.251-.168-5.397-5.862-3.911-8.754l78.99-149.529a40.586 40.586 0 0 0 1.884-4.073l73.048-183.603c2.168-5.447 3.382-11.3 2.933-17.144-1.137-14.709-10.662-24.947-22.57-28.384-14.887-4.302-43.467-12.069-48.724 37.03-.734 6.866-2.195 14.977-4.21 22.307Z" fill="#fff" stroke="#000" stroke-width="5" stroke-miterlimit="10"/><path d="M477.859 363.067c-1.276 4.644-1.905 7.659-2.808 10.778-5.799 19.993-28.355 112.765-47.22 151.556-40.345 82.923-59.404 145.26-66.191 173.929-1.915 8.104 4.731 17.502 13.057 17.502l95.919 1.316c2.883 0 4.329-3.609 2.149-5.503-14.362-12.508-59.021-16.738-72.346-17.428-3.251-.168-5.397-5.862-3.911-8.754l78.99-149.529a40.586 40.586 0 0 0 1.884-4.073l73.048-183.603c2.168-5.447 3.382-11.3 2.933-17.144-1.137-14.709-10.662-24.947-22.57-28.384-14.887-4.302-43.467-12.069-48.724 37.03-.734 6.866-2.195 14.977-4.21 22.307Z" stroke="#000" stroke-width="5" stroke-miterlimit="10"/><path d="M493.473 537.876c-85.091 8.037-175.665-28.461-263.647-56.6-11.999-3.83-43.358 6.556-52.377 15.348-20.066 19.558-38.028 46.983-59.361 55.535-6.907 2.772-13.426-4.94-9.795-11.437 19.206-34.373 48.897-80.791 69.175-113.359 4.954-7.962 15.458-10.296 23.457-5.419 86.753 52.846 157.554-2.151 216.407 48.309-24.466-14.434-74.366-51.725-102.526-74.945-48.166-39.731-75.62-63.445-87.163-113.059-10.194-43.812 24.605-98.068 78.446-85.443 51.921 12.173 57.083 103.48 62.322 108.546 64.343 62.226 127.645 99.87 149.689 190.959 4.53 18.722-8.222 40.016-24.627 41.565Z" fill="#fff" stroke="#000" stroke-width="5" stroke-miterlimit="10"/><path d="M493.473 537.876c-85.091 8.037-175.665-28.461-263.647-56.6-11.999-3.83-43.358 6.556-52.377 15.348-20.066 19.558-38.028 46.983-59.361 55.535-6.907 2.772-13.426-4.94-9.795-11.437 19.206-34.373 48.897-80.791 69.175-113.359 4.954-7.962 15.458-10.296 23.457-5.419 86.753 52.846 157.554-2.151 216.407 48.309-24.466-14.434-74.366-51.725-102.526-74.945-48.166-39.731-75.62-63.445-87.163-113.059-10.194-43.812 24.605-98.068 78.446-85.443 51.921 12.173 57.083 103.48 62.322 108.546 64.343 62.226 127.645 99.87 149.689 190.959 4.53 18.722-8.222 40.016-24.627 41.565Z" stroke="#000" stroke-width="5" stroke-miterlimit="10"/><path d="M568.32 388.133s1.116-9.78 7.824-16.489Z" fill="#fff"/><path d="M568.32 388.133s1.116-9.78 7.824-16.489" stroke="#000" stroke-width="5" stroke-miterlimit="10"/><path d="M568.32 388.133s1.116-9.78 7.824-16.489M368.407 305.351c-26.935-27.273-42.825-36.249-42.825-36.249" stroke="#000" stroke-width="5" stroke-miterlimit="10"/><path d="M589.765 343.729c9.451-10.499 22.783-8.78 36.593-15.898 21.929-11.304 54.133 9.226 61.377 35.831 9.564 35.131-113.006 78.013-121.814 58.763-5.216-11.409-2.46-36.297 11.92-58.535 4.621-7.152 11.924-20.161 11.924-20.161Z" fill="#fff" stroke="#000" stroke-width="5" stroke-miterlimit="10"/><path d="M589.765 343.729c9.451-10.499 22.783-8.78 36.593-15.898 21.929-11.304 54.133 9.226 61.377 35.831 9.564 35.131-113.006 78.013-121.814 58.763-5.216-11.409-2.46-36.297 11.92-58.535 4.621-7.152 11.924-20.161 11.924-20.161Z" stroke="#000" stroke-width="5" stroke-miterlimit="10"/><path d="M678.197 382.893c-21.755 6.776-66.159 3.938-68.125-25.551-2.216-33.157-16.296-14.631-21.242-10.323-4.944 4.309-10.849 22.757-13.495 20.26-2.647-2.494-1.108-49.768 28.668-64.311 29.775-14.543 48.538-12.372 63.53.592 14.993 12.956 27.848 45.967 23.274 65.408-4.574 19.443-12.61 13.925-12.61 13.925Z" fill="#000" stroke="#000" stroke-width="5" stroke-miterlimit="10"/><path d="M652.33 307.271c15.732-.182 51.8-11.82 28.076-46.993-19.491-28.895-4.446-31.503-9.203-60.305-3.821-23.156-36.663-30.263-66.612 7.3-27.26 34.187-2.28 44.462 21.332 60.739 23.614 16.273 26.407 39.259 26.407 39.259Z" fill="#000" stroke="#000" stroke-width="5" stroke-miterlimit="10"/><path d="M262.659 444.622c-10.761 29.451-12.483 43.278-12.483 43.278" stroke="#000" stroke-width="5" stroke-miterlimit="10"/></svg>

<svg width="800" height="900" viewBox="0 0 800 900" fill="none" xmlns="http://www.w3.org/2000/svg">
<path d="M528.058 385.828C528.058 385.828 567.914 385.548 574.445 405.974L589.42 345.32C558.072 354.617 544.354 326.324 544.354 326.324C538.194 317.679 519.978 290.674 502.825 274.429C465.38 238.969 426.344 216.36 370.265 202.969C361.475 200.881 323.711 196.458 308.739 196.372C306.417 196.365 303.159 196.241 299.643 196.043C298.634 195.968 295.163 200.075 294.122 200C280.081 235.715 270.064 267.66 258.941 304.398C259.991 303.952 261.04 303.505 262.09 303.094C265.201 301.794 268.203 300.682 271.088 299.792C273.109 299.158 276.447 298.159 278.509 298.053C298.501 296.77 319.685 299.158 337.86 305.992C355.995 312.823 373.639 321.757 387.083 333.369C399.445 344.078 401.752 359.438 412.014 369.541C420.492 377.92 430.851 380.761 440.768 381.651C461.24 383.477 479.151 380.864 498.799 382.844C512.334 384.208 528.058 385.828 528.058 385.828Z" fill="white" stroke="black" stroke-width="5" stroke-miterlimit="10"/>
<path d="M528.058 385.828C528.058 385.828 567.914 385.548 574.445 405.974L589.42 345.32C558.072 354.617 544.354 326.324 544.354 326.324C538.194 317.679 519.978 290.674 502.825 274.429C465.38 238.969 426.344 216.36 370.265 202.969C361.475 200.881 323.711 196.458 308.739 196.372C306.417 196.365 303.159 196.241 299.643 196.043C298.634 195.968 295.163 200.075 294.122 200C280.081 235.715 270.064 267.66 258.941 304.398C259.991 303.952 261.04 303.505 262.09 303.094C265.201 301.794 268.203 300.682 271.088 299.792C273.109 299.158 276.447 298.159 278.509 298.053C298.501 296.77 319.685 299.158 337.86 305.992C355.995 312.823 373.639 321.757 387.083 333.369C399.445 344.078 401.752 359.438 412.014 369.541C420.492 377.92 430.851 380.761 440.768 381.651C461.24 383.477 479.151 380.864 498.799 382.844C512.334 384.208 528.058 385.828 528.058 385.828Z" stroke="black" stroke-width="5" stroke-miterlimit="10"/>
<path d="M477.859 363.067C476.583 367.711 475.954 370.726 475.051 373.845C469.252 393.838 446.696 486.61 427.831 525.401C387.486 608.324 368.427 670.661 361.64 699.33C359.725 707.434 366.371 716.832 374.697 716.832L470.616 718.148C473.499 718.148 474.945 714.539 472.765 712.645C458.403 700.137 413.744 695.907 400.419 695.217C397.168 695.049 395.022 689.355 396.508 686.463L475.498 536.934C476.2 535.615 476.83 534.25 477.382 532.861L550.43 349.258C552.598 343.811 553.812 337.958 553.363 332.114C552.226 317.405 542.701 307.167 530.793 303.73C515.906 299.428 487.326 291.661 482.069 340.76C481.335 347.626 479.874 355.737 477.859 363.067Z" fill="white" stroke="black" stroke-width="5" stroke-miterlimit="10"/>
<path d="M477.859 363.067C476.583 367.711 475.954 370.726 475.051 373.845C469.252 393.838 446.696 486.61 427.831 525.401C387.486 608.324 368.427 670.661 361.64 699.33C359.725 707.434 366.371 716.832 374.697 716.832L470.616 718.148C473.499 718.148 474.945 714.539 472.765 712.645C458.403 700.137 413.744 695.907 400.419 695.217C397.168 695.049 395.022 689.355 396.508 686.463L475.498 536.934C476.2 535.615 476.83 534.25 477.382 532.861L550.43 349.258C552.598 343.811 553.812 337.958 553.363 332.114C552.226 317.405 542.701 307.167 530.793 303.73C515.906 299.428 487.326 291.661 482.069 340.76C481.335 347.626 479.874 355.737 477.859 363.067Z" stroke="black" stroke-width="5" stroke-miterlimit="10"/>
<path d="M493.473 537.876C408.382 545.913 317.808 509.415 229.826 481.276C217.827 477.446 186.468 487.832 177.449 496.624C157.383 516.182 139.421 543.607 118.088 552.159C111.181 554.931 104.662 547.219 108.293 540.722C127.499 506.349 157.19 459.931 177.468 427.363C182.422 419.401 192.926 417.067 200.925 421.944C287.678 474.79 358.479 419.793 417.332 470.253C392.866 455.819 342.966 418.528 314.806 395.308C266.64 355.577 239.186 331.863 227.643 282.249C217.449 238.437 252.248 184.181 306.089 196.806C358.01 208.979 363.172 300.286 368.411 305.352C432.754 367.578 496.056 405.222 518.1 496.311C522.63 515.033 509.878 536.327 493.473 537.876Z" fill="white" stroke="black" stroke-width="5" stroke-miterlimit="10"/>
<path d="M493.473 537.876C408.382 545.913 317.808 509.415 229.826 481.276C217.827 477.446 186.468 487.832 177.449 496.624C157.383 516.182 139.421 543.607 118.088 552.159C111.181 554.931 104.662 547.219 108.293 540.722C127.499 506.349 157.19 459.931 177.468 427.363C182.422 419.401 192.926 417.067 200.925 421.944C287.678 474.79 358.479 419.793 417.332 470.253C392.866 455.819 342.966 418.528 314.806 395.308C266.64 355.577 239.186 331.863 227.643 282.249C217.449 238.437 252.248 184.181 306.089 196.806C358.01 208.979 363.172 300.286 368.411 305.352C432.754 367.578 496.056 405.222 518.1 496.311C522.63 515.033 509.878 536.327 493.473 537.876Z" stroke="black" stroke-width="5" stroke-miterlimit="10"/>
<path d="M568.32 388.133C568.32 388.133 569.436 378.353 576.144 371.644Z" fill="white"/>
<path d="M568.32 388.133C568.32 388.133 569.436 378.353 576.144 371.644" stroke="black" stroke-width="5" stroke-miterlimit="10"/>
<path d="M568.32 388.133C568.32 388.133 569.436 378.353 576.144 371.644" stroke="black" stroke-width="5" stroke-miterlimit="10"/>
<path d="M368.407 305.351C341.472 278.078 325.582 269.102 325.582 269.102" stroke="black" stroke-width="5" stroke-miterlimit="10"/>
<path d="M589.765 343.729C599.216 333.23 612.548 334.949 626.358 327.831C648.287 316.527 680.491 337.057 687.735 363.662C697.299 398.793 574.729 441.675 565.921 422.425C560.705 411.016 563.461 386.128 577.841 363.89C582.462 356.738 589.765 343.729 589.765 343.729Z" fill="white" stroke="black" stroke-width="5" stroke-miterlimit="10"/>
<path d="M589.765 343.729C599.216 333.23 612.548 334.949 626.358 327.831C648.287 316.527 680.491 337.057 687.735 363.662C697.299 398.793 574.729 441.675 565.921 422.425C560.705 411.016 563.461 386.128 577.841 363.89C582.462 356.738 589.765 343.729 589.765 343.729Z" stroke="black" stroke-width="5" stroke-miterlimit="10"/>
<path d="M678.197 382.893C656.442 389.669 612.038 386.831 610.072 357.342C607.856 324.185 593.776 342.711 588.83 347.019C583.886 351.328 577.981 369.776 575.335 367.279C572.688 364.785 574.227 317.511 604.003 302.968C633.778 288.425 652.541 290.596 667.533 303.56C682.526 316.516 695.381 349.527 690.807 368.968C686.233 388.411 678.197 382.893 678.197 382.893Z" fill="black" stroke="black" stroke-width="5" stroke-miterlimit="10"/>
<path d="M652.33 307.271C668.062 307.089 704.13 295.451 680.406 260.278C660.915 231.383 675.96 228.775 671.203 199.973C667.382 176.817 634.54 169.71 604.591 207.273C577.331 241.46 602.311 251.735 625.923 268.012C649.537 284.285 652.33 307.271 652.33 307.271Z" fill="black" stroke="black" stroke-width="5" stroke-miterlimit="10"/>
<path d="M262.659 444.622C251.898 474.073 250.176 487.9 250.176 487.9" stroke="black" stroke-width="5" stroke-miterlimit="10"/>
</svg>
